docs/img/footer/VK_Color-1.svg

<svg width="40" height="40" viewBox="0 0 40 40" fill="none" xmlns="http://www.w3.org/2000/svg">
<g id="VK">
<path id="back" fill-rule="evenodd" clip-rule="evenodd" d="M0 20C0 8.95431 8.95431 0 20 0C31.0457 0 40 8.95431 40 20C40 31.0457 31.0457 40 20 40C8.95431 40 0 31.0457 0 20Z" fill="#4C6C91"/>
<path id="Shape" fill-rule="evenodd" clip-rule="evenodd" d="M21.0466 25.8967C21.0466 25.8967 21.4316 25.8547 21.6288 25.6468C21.8093 25.4563 21.803 25.0968 21.803 25.0968C21.803 25.0968 21.779 23.4181 22.5731 23.1703C23.3556 22.9265 24.3604 24.7937 25.4268 25.5116C26.2323 26.0545 26.8438 25.9357 26.8438 25.9357L29.6933 25.8967C29.6933 25.8967 31.1833 25.8066 30.4769 24.6564C30.4185 24.5622 30.0648 23.8053 28.3588 22.2505C26.5714 20.6231 26.8114 20.8863 28.9629 18.0707C30.2735 16.3562 30.7973 15.3095 30.6335 14.8619C30.478 14.4338 29.5139 14.5474 29.5139 14.5474L26.3064 14.5669C26.3064 14.5669 26.0685 14.5352 25.8922 14.6386C25.72 14.74 25.6084 14.9766 25.6084 14.9766C25.6084 14.9766 25.1013 16.3029 24.4241 17.4316C22.9957 19.8119 22.4249 19.9379 22.1912 19.7904C21.6476 19.4452 21.7832 18.4056 21.7832 17.6672C21.7832 15.3596 22.1401 14.3979 21.0893 14.149C20.7408 14.0661 20.4842 14.0118 19.592 14.0026C18.4474 13.9913 17.4791 14.0067 16.9303 14.2699C16.5651 14.445 16.2834 14.8363 16.4555 14.8588C16.6674 14.8865 17.1473 14.9858 17.4019 15.3258C17.7306 15.7652 17.7191 16.7505 17.7191 16.7505C17.7191 16.7505 17.908 19.4667 17.2778 19.8037C16.8458 20.0352 16.2531 19.563 14.9791 17.4029C14.327 16.2968 13.8345 15.0739 13.8345 15.0739C13.8345 15.0739 13.7395 14.8455 13.5695 14.7226C13.3639 14.5741 13.077 14.528 13.077 14.528L10.0292 14.5474C10.0292 14.5474 9.5711 14.5597 9.40311 14.7554C9.2539 14.9285 9.39163 15.2879 9.39163 15.2879C9.39163 15.2879 11.7779 20.7685 14.4804 23.5308C16.9585 26.0627 19.7715 25.8967 19.7715 25.8967H21.0466Z" fill="white"/>
</g>
</svg>

<svg width="40" height="40" fill="none" xmlns="http://www.w3.org/2000/svg"><g fill-rule="evenodd" clip-rule="evenodd"><path d="M0 20C0 8.954 8.954 0 20 0s20 8.954 20 20-8.954 20-20 20S0 31.046 0 20z" fill="#4C6C91"/><path d="M21.047 25.897s.385-.042.582-.25c.18-.19.174-.55.174-.55s-.024-1.679.77-1.927c.783-.244 1.787 1.624 2.854 2.342.805.543 1.417.424 1.417.424l2.85-.04s1.49-.09.783-1.24c-.058-.094-.412-.85-2.118-2.405-1.788-1.628-1.548-1.365.604-4.18 1.31-1.715 1.834-2.762 1.67-3.21-.155-.427-1.12-.314-1.12-.314l-3.207.02s-.238-.032-.414.072c-.172.101-.284.338-.284.338s-.507 1.326-1.184 2.455c-1.428 2.38-2 2.506-2.233 2.358-.543-.345-.408-1.384-.408-2.123 0-2.307.357-3.27-.694-3.518-.348-.083-.605-.137-1.497-.146-1.145-.012-2.113.004-2.662.267-.365.175-.647.566-.474.589.211.027.691.127.946.467.329.44.317 1.424.317 1.424s.189 2.717-.441 3.054c-.432.231-1.025-.241-2.299-2.401-.652-1.106-1.144-2.33-1.144-2.33s-.096-.228-.266-.35c-.205-.149-.492-.195-.492-.195l-3.048.02s-.458.012-.626.207c-.15.173-.011.533-.011.533s2.386 5.48 5.088 8.243c2.479 2.532 5.291 2.366 5.291 2.366h1.276z" fill="#fff"/></g></svg>
